images/tree.svg

<svg width="100" height="100" xmlns="http://www.w3.org/2000/svg">

 <g>
  <title>background</title>
  <rect fill="none" id="canvas_background" height="402" width="582" y="-1" x="-1"/>
 </g>
 <g>
  <title>Layer 1</title>
  <path id="svg_1" fill="white" d="m49.4141,22.1094c-2.7929,5.0781 -7.832,9.9219 -13.1445,12.6758l-2.3438,1.2109l0.9375,0.3711c6.0157,2.3633 14.5118,3.2226 21.5235,2.207c3.2422,-0.4883 9.6484,-2.207 9.6289,-2.5976c0,-0.0782 -0.6055,-0.4102 -1.3281,-0.7227c-5.4297,-2.4219 -11.1133,-7.7148 -14.1016,-13.1445c-0.2539,-0.4492 -0.5273,-0.8203 -0.5859,-0.8203c-0.0586,0 -0.3321,0.3711 -0.586,0.8203z"/>
  <path id="svg_2" fill="white" d="m38.7695,43.1836c-3.6523,3.6914 -8.5937,7.4609 -12.2461,9.3555c-0.7422,0.3711 -1.3281,0.7421 -1.3281,0.8203c0,0.1758 2.8906,1.8945 4.8828,2.8906c3.8867,1.9531 8.8867,3.5156 13.4766,4.2383c3.125,0.4687 9.7656,0.4687 12.8906,0c4.6485,-0.7422 9.5508,-2.2656 13.4961,-4.2383c2.0313,-1.0156 4.8633,-2.7148 4.8633,-2.9102c0,-0.0781 -0.332,-0.2929 -0.7227,-0.4882c-2.0312,-0.9571 -6.3672,-3.8672 -8.75,-5.8399c-0.6445,-0.5469 -2.2656,-2.0703 -3.6132,-3.3789c-2.4024,-2.3633 -2.461,-2.4023 -3.125,-2.2656l-0.6836,0.1562l-0.0586,2.0703l-0.0586,2.0508l0.6054,0.2539c1.3282,0.5469 2.5391,2.5196 2.5391,4.1407c0,1.875 -1.582,3.9843 -3.3398,4.4531c-1.0157,0.2734 -2.6368,0.1562 -3.4375,-0.2539c-1.4454,-0.7617 -2.5977,-2.6172 -2.5977,-4.1992c0,-1.6211 1.2109,-3.5938 2.5391,-4.1407l0.5859,-0.2343l0,-1.7969l0,-1.7774l-4.5313,0c-3.3789,-0.0195 -5.1171,-0.0976 -6.7773,-0.3711c-1.2109,-0.1757 -2.3047,-0.3906 -2.4414,-0.4296c-0.1172,-0.0391 -1.0937,0.8007 -2.168,1.8945z"/>
  <path id="svg_3" fill="white" d="m29.8828,61.6601c-3.0273,2.6368 -7.3046,5.6641 -11.1132,7.8711c-1.4063,0.8008 -1.7383,1.0743 -1.5625,1.2891c0.1171,0.1367 1.0156,0.8594 1.9921,1.6016c18.3204,13.8085 43.2032,13.8281 61.543,0.0586c0.9961,-0.7422 1.9141,-1.4844 2.0313,-1.6407c0.1758,-0.2148 -0.2735,-0.5664 -2.461,-1.8554c-3.3007,-1.9727 -6.9726,-4.5899 -9.707,-6.8946l-2.0703,-1.7578l-1.5039,0.586c-3.8086,1.4648 -8.6328,2.5586 -13.0274,2.9687c-2.4218,0.2149 -7.4609,0.1367 -9.414,-0.1367l-0.8399,-0.1367l0,1.9531l0,1.9727l0.586,0.2343c1.3281,0.5469 2.539,2.5196 2.539,4.1406c0,1.875 -1.582,3.9844 -3.3398,4.4532c-1.0156,0.2734 -2.6367,0.1562 -3.4375,-0.2539c-1.4453,-0.7618 -2.5977,-2.6172 -2.5977,-4.1993c0,-1.621 1.211,-3.5937 2.5391,-4.1406l0.5859,-0.2343l0,-2.1875l0,-2.1875l-2.1875,-0.5469c-1.2109,-0.3125 -3.2812,-0.9375 -4.5898,-1.4063c-1.3086,-0.4687 -2.4024,-0.8593 -2.4414,-0.8398c-0.0391,0 -0.7227,0.5859 -1.5235,1.289z"/>
  <path id="svg_4" fill="white" d="m44.8242,86.4258c-0.0781,0.5469 -0.8789,8.418 -0.8789,8.75c0,0.0781 2.7344,0.1367 6.0547,0.1367c3.3398,0 6.0547,-0.0586 6.0547,-0.1367c0,-0.332 -0.8008,-8.2031 -0.8789,-8.75l-0.0977,-0.586l-5.0781,0l-5.0781,0l-0.0977,0.586z"/>
  <ellipse ry="6.463596" rx="6.166418" id="svg_5" cy="70.066189" cx="42.05052" stroke-width="1.5" fill="white"/>
  <ellipse id="svg_6" cy="74.895313" cx="45.245171" stroke-width="1.5" stroke="#000" fill="#fff"/>
  <ellipse ry="6.983656" rx="5.572065" id="svg_8" cy="48.743752" cx="56.315007" stroke-width="1.5" fill="white"/>
 </g>
</svg>

<svg width="100" height="100" viewBox="0 0 100 100" fill="none" xmlns="http://www.w3.org/2000/svg">
<path d="M48.3789 7.91014L46.875 10.9375H43.8086H40.7227L43.0273 13.2422L45.332 15.5664L44.1406 18.5742C43.4766 20.2344 42.7539 22.0117 42.5586 22.5195C42.3438 23.0469 42.2461 23.418 42.3242 23.3789C42.4219 23.3203 44.1797 22.2656 46.25 21.0156L50 18.7695L53.7695 21.0156C55.8203 22.2656 57.5781 23.3203 57.6758 23.3789C57.7539 23.418 57.6562 23.0469 57.4414 22.5195C57.2461 22.0117 56.5234 20.2344 55.8594 18.5742L54.668 15.5664L56.9727 13.2422L59.2773 10.9375H56.1914H53.125L51.6211 7.91014C50.7812 6.24999 50.0586 4.8828 50 4.8828C49.9414 4.8828 49.2188 6.24999 48.3789 7.91014Z" fill="#DA0F0F"/>
<path d="M49.4141 22.1094C46.6212 27.1875 41.5821 32.0313 36.2696 34.7852L33.9258 35.9961L34.8633 36.3672C40.879 38.7305 49.3751 39.5898 56.3868 38.5742C59.629 38.0859 66.0352 36.3672 66.0157 35.9766C66.0157 35.8984 65.4102 35.5664 64.6876 35.2539C59.2579 32.832 53.5743 27.5391 50.586 22.1094C50.3321 21.6602 50.0587 21.2891 50.0001 21.2891C49.9415 21.2891 49.668 21.6602 49.4141 22.1094Z" fill="white"/>
<path d="M38.7695 43.1836C35.1172 46.875 30.1758 50.6445 26.5234 52.5391C25.7812 52.9102 25.1953 53.2812 25.1953 53.3594C25.1953 53.5352 28.0859 55.2539 30.0781 56.25C33.9648 58.2031 38.9648 59.7656 43.5547 60.4883C46.6797 60.957 53.3203 60.957 56.4453 60.4883C61.0938 59.7461 65.9961 58.2227 69.9414 56.25C71.9727 55.2344 74.8047 53.5352 74.8047 53.3398C74.8047 53.2617 74.4727 53.0469 74.082 52.8516C72.0508 51.8945 67.7148 48.9844 65.332 47.0117C64.6875 46.4648 63.0664 44.9414 61.7188 43.6328C59.3164 41.2695 59.2578 41.2305 58.5938 41.3672L57.9102 41.5234L57.8516 43.5937L57.793 45.6445L58.3984 45.8984C59.7266 46.4453 60.9375 48.418 60.9375 50.0391C60.9375 51.9141 59.3555 54.0234 57.5977 54.4922C56.582 54.7656 54.9609 54.6484 54.1602 54.2383C52.7148 53.4766 51.5625 51.6211 51.5625 50.0391C51.5625 48.418 52.7734 46.4453 54.1016 45.8984L54.6875 45.6641V43.8672V42.0898H50.1562C46.7773 42.0703 45.0391 41.9922 43.3789 41.7187C42.168 41.543 41.0742 41.3281 40.9375 41.2891C40.8203 41.25 39.8438 42.0898 38.7695 43.1836Z" fill="white"/>
<path d="M29.8828 61.6601C26.8555 64.2969 22.5782 67.3242 18.7696 69.5312C17.3633 70.332 17.0313 70.6055 17.2071 70.8203C17.3242 70.957 18.2227 71.6797 19.1992 72.4219C37.5196 86.2304 62.4024 86.25 80.7422 72.4805C81.7383 71.7383 82.6563 70.9961 82.7735 70.8398C82.9493 70.625 82.5 70.2734 80.3125 68.9844C77.0118 67.0117 73.3399 64.3945 70.6055 62.0898L68.5352 60.332L67.0313 60.918C63.2227 62.3828 58.3985 63.4766 54.0039 63.8867C51.5821 64.1016 46.543 64.0234 44.5899 63.75L43.75 63.6133V65.5664V67.5391L44.336 67.7734C45.6641 68.3203 46.875 70.293 46.875 71.914C46.875 73.789 45.293 75.8984 43.5352 76.3672C42.5196 76.6406 40.8985 76.5234 40.0977 76.1133C38.6524 75.3515 37.5 73.4961 37.5 71.914C37.5 70.293 38.711 68.3203 40.0391 67.7734L40.625 67.5391V65.3516V63.1641L38.4375 62.6172C37.2266 62.3047 35.1563 61.6797 33.8477 61.2109C32.5391 60.7422 31.4453 60.3516 31.4063 60.3711C31.3672 60.3711 30.6836 60.957 29.8828 61.6601Z" fill="white"/>
<path d="M44.8242 86.4258C44.7461 86.9727 43.9453 94.8438 43.9453 95.1758C43.9453 95.2539 46.6797 95.3125 50 95.3125C53.3398 95.3125 56.0547 95.2539 56.0547 95.1758C56.0547 94.8438 55.2539 86.9727 55.1758 86.4258L55.0781 85.8398H50H44.9219L44.8242 86.4258Z" fill="white"/>
</svg>
